frontend/public/svg/interface/thumbs-up.svg

<svg width="172" height="139" viewBox="0 0 172 139" fill="none" xmlns="http://www.w3.org/2000/svg">
<g clip-path="url(#clip0)">
<path d="M2.8423 126.816C2.97294 129.178 3.41388 131.511 4.15398 133.756C5.33421 137.492 6.74432 138.127 10.3844 138.143L13.8197 138.157C24.5217 138.201 35.5903 138.243 46.471 138.23C47.5412 138.208 48.6093 138.127 49.6704 137.984C50.7834 137.826 51.9063 137.747 53.0304 137.75C54.7914 137.793 56.5904 137.934 58.3294 138.07C60.4524 138.236 62.642 138.408 64.8153 138.408C64.9547 138.408 65.0937 138.408 65.2322 138.408C92.4128 138.121 114.396 137.808 134.414 137.42C141.407 137.283 146.488 134.39 149.948 128.572C157.535 115.809 163.426 101.399 169.048 81.8478C169.889 78.6768 170.535 75.457 170.984 72.2061C171.213 70.7538 171.452 69.2527 171.721 67.7893C171.728 67.7497 171.732 67.7087 171.732 67.6678V63.005C171.732 62.9299 171.72 62.8555 171.695 62.7848C171.386 61.8982 171.114 60.9628 170.85 60.0567C170.332 57.961 169.553 55.9399 168.531 54.0415C165.24 48.5309 159.695 45.3501 152.494 44.8428C145.707 44.3647 138.789 44.238 132.103 44.1139C130.408 44.0828 128.713 44.05 127.019 44.0154C123.614 43.942 120.148 43.9607 116.799 43.9782C115.508 43.9851 114.218 43.9905 112.927 43.9944C115.098 38.3434 116.45 32.056 117.301 23.6582C117.802 18.7165 118.129 12.2316 116.188 5.90191C114.815 1.42663 112.655 -0.0666955 107.937 0.180127C104.76 0.271514 101.73 1.55243 99.4412 3.77222C98.9121 4.29184 98.3797 4.80827 97.8448 5.32184C95.0346 7.9101 92.4186 10.7039 90.0182 13.6802C87.0034 17.6196 84.1874 21.8043 81.4636 25.8522C80.2725 27.6228 79.0813 29.3937 77.8707 31.1493C72.1922 39.3802 65.46 45.3739 57.2808 49.466C56.6441 49.8144 55.945 50.0324 55.224 50.1066C54.5029 50.1808 53.7745 50.11 53.0808 49.8986C47.0984 48.354 42.0307 47.9793 37.133 48.7171C33.3575 49.2868 29.4748 49.6388 25.7205 49.9779C24.2719 50.1078 22.8245 50.2409 21.3784 50.3844C19.8388 50.5364 18.2969 50.6724 16.7553 50.8082C14.2703 51.0264 11.7007 51.2522 9.17633 51.549C4.5658 52.0914 2.71119 53.8414 1.82586 58.4849L1.74394 58.9032C1.57073 59.6672 1.46497 60.4452 1.42823 61.228C1.39726 62.944 1.35362 64.6593 1.31039 66.3753C1.19553 70.9148 1.0759 75.6084 1.1998 80.2285C1.64375 96.7019 2.27962 113.023 2.8423 126.816ZM47.9327 55.725C47.7914 67.9017 48.6471 80.1207 49.4763 91.9422C50.3023 103.729 51.1539 115.91 51.0016 127.933H13.2384L13.2305 127.857C13.1782 127.373 13.1242 126.873 13.1016 126.383C12.7144 117.275 12.3271 108.166 11.9399 99.0591C11.5738 90.4339 11.2083 81.8094 10.8431 73.185C10.8082 72.3665 10.776 71.5475 10.7464 70.7278C10.6438 68.0355 10.5386 65.2509 10.2901 62.5178C10.1159 60.6017 10.6895 59.8393 12.484 59.6041C14.6454 59.3205 16.8047 59.0287 18.9621 58.7291C23.0674 58.1659 27.312 57.5847 31.4941 57.1014C35.3845 56.6526 39.3594 56.3221 43.204 56.0025C44.5604 55.8904 45.9169 55.7759 47.2733 55.6593C47.4954 55.6542 47.7171 55.6763 47.934 55.725H47.9327ZM109.657 22.7339C109.25 28.5661 107.765 34.7563 104.983 42.2136C104.089 44.611 103.383 47.2682 104.265 50.4587C104.302 50.5926 104.38 50.7115 104.487 50.7989C104.595 50.8864 104.727 50.9379 104.865 50.9465C105.381 50.9776 105.906 51.0153 106.433 51.053C107.587 51.1355 108.78 51.2211 109.973 51.2477C113.37 51.3127 116.768 51.3583 120.168 51.4018C127.672 51.4986 135.431 51.5966 143.046 51.9486C147.146 52.1765 151.19 53.0173 155.045 54.4434C159.767 56.1614 162.045 59.7916 161.814 65.2308C161.458 73.6143 159.393 82.3414 155.314 92.6943C152.614 99.5456 149.565 106.796 145.424 116.207C144.469 118.24 143.379 120.205 142.159 122.09C141.785 122.697 141.412 123.304 141.046 123.915C139.216 126.98 136.359 128.714 132.555 129.069C127.396 129.55 121.391 130.067 115.437 130.116C102.213 130.224 88.7657 130.207 75.76 130.189C71.6618 130.183 67.5636 130.18 63.4646 130.177C62.7393 130.177 61.9941 130.112 61.3353 130.05L61.0627 130.026L55.3197 56.1284C56.2844 55.6965 57.2395 55.2839 58.1829 54.8747C60.5452 53.8523 62.776 52.8871 64.9583 51.725C73.7119 47.0575 81.0661 39.6652 88.1049 28.4601C91.9069 22.4085 96.6478 15.4383 102.974 9.6237C104.176 8.47338 105.58 7.55799 107.115 6.92379C108.225 6.50029 108.692 6.56369 108.888 6.69165C109.155 6.86442 109.324 7.4062 109.379 8.25838C109.792 13.0719 109.885 17.908 109.657 22.7339Z" fill="black"/>
<path d="M31.6706 58.2715C31.6352 58.2714 31.5998 58.274 31.5648 58.2788C23.7252 59.4479 18.9503 63.8756 18.7883 70.1281C18.6302 76.2987 23.6621 81.2962 30.2439 81.5066C30.373 81.5112 30.4975 81.5131 30.6233 81.5131C33.6975 81.517 36.6575 80.3401 38.8998 78.2232C39.9291 77.2639 40.7573 76.1071 41.3363 74.821C41.9153 73.5349 42.2334 72.1449 42.2715 70.7335C42.2374 67.3124 40.8806 64.0398 38.4892 61.6089C36.4553 59.4888 34.033 58.3033 31.6706 58.2715ZM32.1102 71.4843C31.2235 72.5093 29.9683 72.6139 28.3796 71.7961C27.0135 71.0927 26.5522 70.0807 27.0071 68.7862C27.2802 68.1165 27.6228 67.4774 28.0293 66.8805C28.1803 66.6362 28.3416 66.3751 28.5126 66.0906C28.8113 66.2796 29.1006 66.455 29.3787 66.6239C30.1881 67.0649 30.941 67.6034 31.6215 68.2276C32.2771 68.8979 33.2123 70.2145 32.1102 71.4843Z" fill="black"/>
</g>
<defs>
<clipPath id="clip0">
<rect width="171" height="139" fill="white" transform="translate(0.777344)"/>
</clipPath>
</defs>
</svg>

<svg xmlns="http://www.w3.org/2000/svg" width="172" height="139" fill="none" viewBox="0 0 172 139"><g fill="#000" clip-path="url(#a)"><path d="M2.842 126.816a27 27 0 0 0 1.312 6.94c1.18 3.736 2.59 4.371 6.23 4.387l3.436.014c10.702.044 21.77.086 32.651.073a28 28 0 0 0 3.2-.246 23.5 23.5 0 0 1 3.36-.234c1.76.043 3.56.184 5.298.32 2.123.166 4.313.338 6.486.338h.417c27.18-.287 49.164-.6 69.182-.988 6.993-.137 12.074-3.03 15.534-8.848 7.587-12.763 13.478-27.173 19.1-46.724a81 81 0 0 0 1.936-9.642c.229-1.452.468-2.953.737-4.417a1 1 0 0 0 .011-.121v-4.663a.7.7 0 0 0-.037-.22c-.309-.887-.581-1.822-.845-2.728a25.7 25.7 0 0 0-2.319-6.016c-3.291-5.51-8.836-8.69-16.037-9.198-6.787-.478-13.705-.605-20.391-.73q-2.543-.045-5.084-.098c-3.405-.073-6.871-.054-10.22-.037q-1.936.01-3.872.016c2.171-5.65 3.523-11.938 4.374-20.336.501-4.942.828-11.426-1.113-17.756-1.373-4.475-3.533-5.969-8.251-5.722a12.73 12.73 0 0 0-8.496 3.592q-.793.78-1.596 1.55a77.6 77.6 0 0 0-7.827 8.358c-3.015 3.94-5.83 8.124-8.554 12.172-1.192 1.77-2.383 3.542-3.593 5.297-5.679 8.231-12.411 14.225-20.59 18.317a5.45 5.45 0 0 1-4.2.433c-5.983-1.545-11.05-1.92-15.948-1.182-3.776.57-7.658.922-11.413 1.26q-2.172.194-4.342.407c-1.54.152-3.081.288-4.623.424-2.485.218-5.054.444-7.579.741-4.61.542-6.465 2.292-7.35 6.936l-.082.418a13.4 13.4 0 0 0-.316 2.325c-.03 1.716-.074 3.431-.118 5.147-.114 4.54-.234 9.233-.11 13.853.444 16.474 1.08 32.795 1.642 46.588m45.09-71.091c-.14 12.177.715 24.396 1.544 36.217.826 11.787 1.678 23.968 1.526 35.991H13.238l-.008-.076a24 24 0 0 1-.128-1.474L11.94 99.059l-1.097-25.874a377 377 0 0 1-.097-2.457c-.102-2.692-.207-5.477-.456-8.21-.174-1.916.4-2.679 2.194-2.914q3.241-.425 6.478-.875c4.105-.563 8.35-1.144 12.532-1.628 3.89-.448 7.865-.779 11.71-1.099q2.034-.168 4.07-.343.333-.008.66.066zm61.725-32.991c-.407 5.832-1.892 12.022-4.674 19.48-.894 2.397-1.6 5.054-.718 8.245a.67.67 0 0 0 .6.487q.776.05 1.568.107c1.154.083 2.347.168 3.54.195 3.397.065 6.795.11 10.195.154 7.504.097 15.263.195 22.878.547a41.1 41.1 0 0 1 11.999 2.494c4.722 1.718 7 5.349 6.769 10.788-.356 8.383-2.421 17.11-6.5 27.463-2.7 6.852-5.749 14.102-9.89 23.513a50 50 0 0 1-3.265 5.883q-.562.91-1.113 1.825c-1.83 3.065-4.687 4.799-8.491 5.154-5.159.481-11.164.998-17.118 1.047-13.224.108-26.671.091-39.677.073q-6.147-.008-12.295-.012c-.726 0-1.47-.065-2.13-.127l-.272-.024-5.743-73.898c.964-.431 1.92-.844 2.863-1.253 2.362-1.023 4.593-1.988 6.775-3.15 8.754-4.668 16.108-12.06 23.147-23.265 3.802-6.052 8.543-13.022 14.869-18.836a13.4 13.4 0 0 1 4.141-2.7c1.11-.424 1.577-.36 1.773-.232.267.172.436.714.491 1.566.413 4.814.506 9.65.278 14.476"/><path d="M31.67 58.272a1 1 0 0 0-.105.007c-7.84 1.169-12.615 5.597-12.777 11.85-.158 6.17 4.874 11.167 11.456 11.378a12.03 12.03 0 0 0 8.656-3.283 10.6 10.6 0 0 0 2.436-3.403 10.7 10.7 0 0 0 .936-4.087 13.2 13.2 0 0 0-3.783-9.125c-2.034-2.12-4.456-3.306-6.818-3.337m.44 13.212c-.886 1.025-2.142 1.13-3.73.312-1.366-.703-1.828-1.715-1.373-3.01.273-.67.616-1.309 1.022-1.906q.227-.364.484-.79c.298.19.588.365.866.534.81.44 1.562.98 2.242 1.604.656.67 1.591 1.987.49 3.256"/></g><defs><clipPath id="a"><path fill="#fff" d="M.777 0h171v139h-171z"/></clipPath></defs></svg>
